X:18454
T:Waltz. CJF.017
M:3/8
L:1/16
Q:45
C:From J D.
S: C.J.Fox MS, 1829/33, Beverley,E.Yorks.
R:Waltz
O:England
A:East Yorkshire
B:Kidson Coll.Mitchell Lib.M1805
N:C J Fox 1829 in margin.
Z:P J Headford 2000
K:D
FG|A2A2d2|B2B2e2|dcBABc|def2 FG|A2A2d2|B2B2e2|\
dcBABc|d4:|:!ef|g2g2f2|e2e2d2|
cBABcd|e2e2 ef|g2g2f2|e2e2d2|dcBABc|d4:|:!
a2|a4f2|f4d2|cdefe2|d2f2A2|a4f2|f4d2|
e2edef|d4:|:!ed|c2c2e2|d2d2f2|e2e2g2|f2f2a2|a4f2|f4d2|e2edef|d4:|]


